X:1
T:The Adjective
T:Kitty Brazelton, 2012
T:Mark Twain, 1894
T:The Adjective
T:a round
T:Copyright © 2012, Snicim Vinahel
C:Kitty Brazelton, 2012
Z:Mark Twain, 1894
Z:Copyright © 2012, Snicim Vinahel
%%score [ 1 2 3 ]
L:1/8
Q:1/4=144
M:4/4
K:D
V:1 treble nm="Soprano" snm="S."
V:2 treble nm="Alto" snm="A."
V:3 bass nm="Baritone" snm="Bar."
V:1
 D2 | (F6 E2 | A6) B2 | d6 c2 | B4 z2 A2 | B6 A2 | F4 z2 E2 | F6 E2 | D4 z4 | %9
w: As|to _|_ the|Ad- jec-|tive: the|Ad- jec-|tive: the|Ad- jec-|tive:|
 z2"^(sung or spoken softly if out of range)" A,B, B, z z2 | z2 A,B, B, z z2 | z2 A,B, B, z z2 | %12
w: when in doubt,|strike it out.|when in doubt,|
 z2 A,B, B, z z2 | z2 A,B, B, z z2 | z2 A,B, B, z z2 | z2 A,B, B, z z2 |[M:3/4] z2 A,B, B, z |] %17
w: strike it out.|when in doubt,|strike it out.|when in doubt,|strike it out.|
V:2
 z2 | z8 | z4 z2 D2 | (F6 E2 | A6) B2 | [Dd]6 [Cc]2 | [B,B]4 z2 A2 | B6 A2 | F4 z2 E2 | F6 E2 | %10
w: ||As|to _|_ the|Ad- jec-|tive: the|Ad- jec-|tive: the|Ad- jec-|
 D4 z4 | z2 A,B, B, z z2 | z2 A,B, B, z z2 | z2 A,B, B, z z2 | z2 A,B, B, z z2 | z2 A,B, B, z z2 | %16
w: tive:|when in doubt,|strike it out.|when in doubt,|strike it out.|when in doubt,|
[M:3/4] z2 A,B, B, z |] %17
w: strike it out.|
V:3
 z2 | z8 | z8 | z8 | z4 z2 D,2 | (F,6 E,2 | A,6) B,2 | D6 C2 | B,4 z2 A,2 | B,6 A,2 | F,4 z2 E,2 | %11
w: ||||As|to _|_ the|Ad- jec-|tive: the|Ad- jec-|tive: the|
 F,6 E,2 | D,4 z4 | z2 A,B, B, z z2 | z2 A,B, B, z z2 | z2 A,B, B, z z2 |[M:3/4] z2 A,B, B, z |] %17
w: Ad- jec-|tive:|when in doubt,|strike it out.|when in doubt,|strike it out.|

